src/assets/pressure-icon.svg

<svg width="512" height="512" fill="none" xmlns="http://www.w3.org/2000/svg">
  <path d="M231.4 83.5C145.6 96.1 82 169.3 82 255.5c0 89.1 65.1 162.4 154 173.4 55.1 6.9 114.3-15.9 150.8-57.9 52.1-60.1 57.6-146.3 13.7-212-27.7-41.4-72-69-121.5-75.6-12.9-1.7-35.4-1.6-47.6.1Zm56.8 17.4c59.4 12.8 105.9 57.5 121.2 116.2 7.2 27.8 6 61.2-3.3 88.8-15.7 46.8-53.4 84.5-100.2 100.2-20.7 6.9-48 9.6-69.6 6.9-59.2-7.4-110.1-48.6-129.7-104.9-6.7-19.2-8-27.9-8-52.1 0-18.5.3-22.9 2.2-31.6 7-32.1 20.4-56.7 43.7-79.9 23.2-23.3 48.9-37.3 79.4-43.4 14-2.9 14.8-2.9 35.6-2.6 14.6.3 21.3.8 28.7 2.4Z" fill="#4B4539"/>
  <path d="M234.9 115.5c-11.5 1.8-19.6 4-30 8-7.1 2.7-18.5 7.9-19.7 9-.3.2 29.3 52 30.4 53.4.2.2 4-1.3 8.6-3.2 12.5-5.3 17.6-6.2 32.8-6.1 14.6.1 20.6 1.4 33.1 7 3.4 1.6 6.4 2.4 6.6 1.9.2-.6 7.1-12.5 15.2-26.5l14.9-25.5-2.2-1.7c-3-2.5-21.8-10.2-30.6-12.7-17.9-4.9-41.2-6.4-59.1-3.6ZM170.5 142.4c-37.5 28.7-58 72-56.2 119 .7 20.6 4.6 36.9 13.3 55.5 2.5 5.2 4.6 9.6 4.8 9.8.3.3 51.8-28.9 53.5-30.3.2-.2-1-3.6-2.7-7.6-4.6-10.6-6.3-18-6.9-29.8-1.2-24.6 8.5-46.7 28.1-63.7l4.8-4.2-14.7-25.5c-8.1-14-15.2-26.2-15.8-27-1-1.3-2.1-.8-8.2 3.8ZM328.7 146.3c-3 5.1-10 17.2-15.7 27l-10.3 17.8 3.9 3.2c13 10.5 22.3 25.2 27.6 43.7.7 2.7 1.2 10.1 1.2 18.5 0 13.2-.2 14.6-3.3 23.5-1.7 5.2-4.1 10.9-5.1 12.7l-1.9 3.2 26.6 15.3c14.6 8.4 26.8 15.3 27.2 15.2 1.3-.1 9.2-17.2 12-25.9 5.5-17.2 6.6-24.4 6.5-44.5 0-21.2-1.9-32.3-8.1-49-4.6-12.3-7.7-18.5-15.1-29.5-9.7-14.7-21.5-27-35.4-37l-4.7-3.4-5.4 9.2Z" fill="#4B4539"/>
  <path d="M255 184.8c0 .5-4.3 39-9.5 85.6-5.6 49.8-9.3 86.2-8.9 88.2 1.6 8.4 10.3 15.4 19.4 15.4 9 0 17.8-7 19.4-15.3.4-1.9-3.4-39.7-8.9-88.2-5.2-46.7-9.5-85.2-9.5-85.7 0-.4-.4-.8-1-.8-.5 0-1 .4-1 .8Zm4.3 162.4c5.2 2.7 6.2 8.3 2.2 12.3-3.4 3.5-8.6 3.4-11.4-.1-3.5-4.4-2.5-9.4 2.4-12.2 2.6-1.5 4.1-1.5 6.8 0Z" fill="#4B4539"/>
</svg>

<svg width="512" height="512" viewBox="0 0 512 512" fill="none" xmlns="http://www.w3.org/2000/svg">
<path d="M231.4 83.4999C145.6 96.0999 82 169.3 82 255.5C82 344.6 147.1 417.9 236 428.9C291.1 435.8 350.3 413 386.8 371C438.9 310.9 444.4 224.7 400.5 159C372.8 117.6 328.5 89.9999 279 83.3999C266.1 81.6999 243.6 81.7999 231.4 83.4999ZM288.2 100.9C347.6 113.7 394.1 158.4 409.4 217.1C416.6 244.9 415.4 278.3 406.1 305.9C390.4 352.7 352.7 390.4 305.9 406.1C285.2 413 257.9 415.7 236.3 413C177.1 405.6 126.2 364.4 106.6 308.1C99.9 288.9 98.6 280.2 98.6 256C98.6 237.5 98.9 233.1 100.8 224.4C107.8 192.3 121.2 167.7 144.5 144.5C167.7 121.2 193.4 107.2 223.9 101.1C237.9 98.1999 238.7 98.1999 259.5 98.4999C274.1 98.7999 280.8 99.2999 288.2 100.9Z" fill="#4B4539"/>
<path d="M234.9 115.5C223.4 117.3 215.3 119.5 204.9 123.5C197.8 126.2 186.4 131.4 185.2 132.5C184.9 132.7 214.5 184.5 215.6 185.9C215.8 186.1 219.6 184.6 224.2 182.7C236.7 177.4 241.8 176.5 257 176.6C271.6 176.7 277.6 178 290.1 183.6C293.5 185.2 296.5 186 296.7 185.5C296.9 184.9 303.8 173 311.9 159L326.8 133.5L324.6 131.8C321.6 129.3 302.8 121.6 294 119.1C276.1 114.2 252.8 112.7 234.9 115.5Z" fill="#4B4539"/>
<path d="M170.5 142.4C133 171.1 112.5 214.4 114.3 261.4C115 282 118.9 298.3 127.6 316.9C130.1 322.1 132.2 326.5 132.4 326.7C132.7 327 184.2 297.8 185.9 296.4C186.1 296.2 184.9 292.8 183.2 288.8C178.6 278.2 176.9 270.8 176.3 259C175.1 234.4 184.8 212.3 204.4 195.3L209.2 191.1L194.5 165.6C186.4 151.6 179.3 139.4 178.7 138.6C177.7 137.3 176.6 137.8 170.5 142.4Z" fill="#4B4539"/>
<path d="M328.7 146.3C325.7 151.4 318.7 163.5 313 173.3L302.7 191.1L306.6 194.3C319.6 204.8 328.9 219.5 334.2 238C334.9 240.7 335.4 248.1 335.4 256.5C335.4 269.7 335.2 271.1 332.1 280C330.4 285.2 328 290.9 327 292.7L325.1 295.9L351.7 311.2C366.3 319.6 378.5 326.5 378.9 326.4C380.2 326.3 388.1 309.2 390.9 300.5C396.4 283.3 397.5 276.1 397.4 256C397.4 234.8 395.5 223.7 389.3 207C384.7 194.7 381.6 188.5 374.2 177.5C364.5 162.8 352.7 150.5 338.8 140.5L334.1 137.1L328.7 146.3Z" fill="#4B4539"/>
<path d="M255 184.8C255 185.3 250.7 223.8 245.5 270.4C239.9 320.2 236.2 356.6 236.6 358.6C238.2 367 246.9 374 256 374C265 374 273.8 367 275.4 358.7C275.8 356.8 272 319 266.5 270.5C261.3 223.8 257 185.3 257 184.8C257 184.4 256.6 184 256 184C255.5 184 255 184.4 255 184.8ZM259.3 347.2C264.5 349.9 265.5 355.5 261.5 359.5C258.1 363 252.9 362.9 250.1 359.4C246.6 355 247.6 350 252.5 347.2C255.1 345.7 256.6 345.7 259.3 347.2Z" fill="#4B4539"/>
</svg>
